suite-common/icons/assets/icons/info.svg

<svg xmlns="http://www.w3.org/2000/svg" xml:space="preserve" fill="none" viewBox="0 0 16 16">
  <path fill="#000" fill-rule="evenodd" d="M7.467 1.281c-.548.04-1.244.19-1.776.385a9 9 0 0 0-1.384.695 7 7 0 0 0-1.946 1.946 9 9 0 0 0-.695 1.384 6.83 6.83 0 0 0-.036 4.519c.142.416.505 1.149.75 1.515a6.66 6.66 0 0 0 2.647 2.317c.982.483 1.864.687 2.973.687 1.11 0 1.994-.204 2.973-.687a6.65 6.65 0 0 0 2.647-2.318 8.4 8.4 0 0 0 .75-1.514c.75-2.198.34-4.59-1.099-6.408a7.1 7.1 0 0 0-1.578-1.441 9 9 0 0 0-1.384-.695 6.85 6.85 0 0 0-2.842-.385m1.12 1.494a5.26 5.26 0 0 1 3.217 1.606 5.255 5.255 0 0 1 .36 6.832 7 7 0 0 1-.857.874 5.6 5.6 0 0 1-1.56.873 5.29 5.29 0 0 1-5.054-.873 7 7 0 0 1-.857-.874 5.4 5.4 0 0 1-1.065-2.652 6.5 6.5 0 0 1 .053-1.486 5.28 5.28 0 0 1 4.552-4.298 7.3 7.3 0 0 1 1.211-.002m-.774 1.25a.73.73 0 0 0-.594.722.71.71 0 0 0 .741.731.69.69 0 0 0 .64-.389.74.74 0 0 0-.364-1.019.85.85 0 0 0-.423-.045M7.2 6.828a.71.71 0 0 0-.426.68c-.001.296.138.526.391.646l.086.042.008 1.495c.009 1.667-.001 1.583.198 1.804a1 1 0 0 0 .236.176c.123.057.169.062.56.062.394 0 .437-.005.56-.063.27-.128.412-.36.412-.67a.7.7 0 0 0-.36-.642l-.116-.069-.008-1.484C8.733 7.35 8.732 7.318 8.676 7.2a.8.8 0 0 0-.309-.341c-.107-.071-.119-.072-.578-.08-.427-.006-.48-.002-.589.049"/>
</svg>

<svg xmlns="http://www.w3.org/2000/svg" xml:space="preserve" fill="none" viewBox="0 0 16 16"><path d="M7.467 1.281 C 6.919 1.321,6.223 1.471,5.691 1.666 C 5.317 1.803,4.621 2.152,4.307 2.361 C 3.537 2.873,2.873 3.537,2.361 4.307 C 2.152 4.621,1.803 5.317,1.666 5.691 C 1.141 7.126,1.129 8.741,1.630 10.210 C 1.772 10.626,2.135 11.359,2.380 11.725 C 3.060 12.740,3.935 13.505,5.027 14.042 C 6.009 14.525,6.891 14.729,8.000 14.729 C 9.110 14.729,9.994 14.525,10.973 14.042 C 12.071 13.500,12.944 12.736,13.620 11.724 C 13.866 11.356,14.229 10.622,14.370 10.210 C 15.120 8.012,14.710 5.620,13.271 3.802 C 12.857 3.279,12.278 2.750,11.693 2.361 C 11.379 2.152,10.683 1.803,10.309 1.666 C 9.423 1.342,8.450 1.210,7.467 1.281 M8.587 2.775 C 9.844 2.930,10.939 3.477,11.804 4.381 C 13.593 6.252,13.745 9.142,12.164 11.213 C 11.991 11.440,11.543 11.897,11.307 12.087 C 10.862 12.446,10.275 12.775,9.747 12.960 C 8.029 13.561,6.107 13.229,4.693 12.087 C 4.457 11.897,4.009 11.440,3.836 11.213 C 3.251 10.447,2.881 9.524,2.771 8.561 C 2.728 8.175,2.753 7.455,2.824 7.075 C 3.252 4.788,5.067 3.073,7.376 2.777 C 7.639 2.743,8.322 2.742,8.587 2.775 M7.813 4.025 C 7.464 4.096,7.220 4.392,7.219 4.747 C 7.217 5.172,7.531 5.482,7.960 5.478 C 8.248 5.475,8.459 5.347,8.600 5.089 C 8.800 4.722,8.624 4.228,8.236 4.070 C 8.117 4.021,7.928 4.001,7.813 4.025 M7.200 6.828 C 6.925 6.954,6.774 7.196,6.774 7.508 C 6.773 7.804,6.912 8.034,7.165 8.154 L 7.251 8.196 7.259 9.691 C 7.268 11.358,7.258 11.274,7.457 11.495 C 7.514 11.557,7.620 11.636,7.693 11.671 C 7.816 11.728,7.862 11.733,8.253 11.733 C 8.647 11.733,8.690 11.728,8.813 11.670 C 9.083 11.542,9.225 11.310,9.225 11.000 C 9.225 10.714,9.104 10.498,8.865 10.358 L 8.749 10.289 8.741 8.805 C 8.733 7.350,8.732 7.318,8.676 7.200 C 8.609 7.059,8.519 6.960,8.367 6.859 C 8.260 6.788,8.248 6.787,7.789 6.779 C 7.362 6.773,7.309 6.777,7.200 6.828 " stroke="none" fill-rule="evenodd" fill="black"></path></svg>
